packages/icons/svg/Outline/shuffle-2.svg

<svg width="24" height="24" viewBox="0 0 24 24" fill="none" xmlns="http://www.w3.org/2000/svg">
<g id="Icon/Outline/shuffle-2">
<path id="Mask" fill-rule="evenodd" clip-rule="evenodd" d="M18.709 14.2944C18.319 13.9024 17.685 13.9004 17.295 14.2914C16.903 14.6814 16.901 15.3144 17.291 15.7054L17.584 16.0004H16C13.794 16.0004 12 14.2054 12 12.0004C12 9.7944 13.794 8.0004 16 8.0004H17.588L17.295 8.2914C16.903 8.6814 16.901 9.3144 17.291 9.7054C17.486 9.9014 17.743 10.0004 18 10.0004C18.255 10.0004 18.511 9.9024 18.705 9.7084L20.705 7.7174C20.894 7.5304 20.999 7.2764 21 7.0114C21.001 6.7454 20.896 6.4914 20.709 6.3034L18.709 4.2944C18.319 3.9024 17.685 3.9004 17.295 4.2914C16.903 4.6814 16.901 5.3144 17.291 5.7054L17.584 6.0004H16C13.914 6.0004 12.075 7.0704 11 8.6904C9.925 7.0704 8.086 6.0004 6 6.0004H4C3.447 6.0004 3 6.4474 3 7.0004C3 7.5524 3.447 8.0004 4 8.0004H6C8.206 8.0004 10 9.7944 10 12.0004C10 14.2054 8.206 16.0004 6 16.0004H4C3.447 16.0004 3 16.4474 3 17.0004C3 17.5524 3.447 18.0004 4 18.0004H6C8.086 18.0004 9.925 16.9294 11 15.3094C12.075 16.9294 13.914 18.0004 16 18.0004H17.588L17.295 18.2914C16.903 18.6814 16.901 19.3144 17.291 19.7054C17.486 19.9014 17.743 20.0004 18 20.0004C18.255 20.0004 18.511 19.9024 18.705 19.7084L20.705 17.7174C20.894 17.5304 20.999 17.2764 21 17.0114C21.001 16.7454 20.896 16.4914 20.709 16.3034L18.709 14.2944Z" fill="#000000"/>
</g>
</svg>

<svg fill="none" height="24" viewBox="0 0 24 24" width="24" xmlns="http://www.w3.org/2000/svg"><path clip-rule="evenodd" d="m18.709 14.2944c-.39-.392-1.024-.394-1.414-.003-.392.39-.394 1.023-.004 1.414l.293.295h-1.584c-2.206 0-4-1.795-4-4 0-2.20601 1.794-4 4-4h1.588l-.293.291c-.392.39-.394 1.023-.004 1.414.195.19599.452.295.709.295.255 0 .511-.09801.705-.29201l2-1.99099c.189-.187.294-.441.295-.706.001-.266-.104-.52-.291-.708l-2-2.009c-.39-.392-1.024-.394-1.414-.003-.392.39-.394 1.023-.004 1.414l.293.295h-1.584c-2.086 0-3.925 1.06999-5 2.68999-1.075-1.62-2.914-2.68999-5-2.68999h-2c-.553 0-1 .447-1 1 0 .552.447 1 1 1h2c2.206 0 4 1.79399 4 4 0 2.205-1.794 4-4 4h-2c-.553 0-1 .447-1 1 0 .552.447 1 1 1h2c2.086 0 3.925-1.071 5-2.691 1.075 1.62 2.914 2.691 5 2.691h1.588l-.293.291c-.392.39-.394 1.023-.004 1.414.195.196.452.295.709.295.255 0 .511-.098.705-.292l2-1.991c.189-.187.294-.441.295-.706.001-.266-.104-.52-.291-.708z" fill="#6b7280" fill-rule="evenodd"/></svg>
